src/assets/icon4.svg

<svg width="48" height="48" viewBox="0 0 48 48" fill="none" xmlns="http://www.w3.org/2000/svg">
<g clip-path="url(#clip0_212_786)">
<path d="M46.5 3.75H41.25V3C41.25 1.7595 40.2405 0.75 39 0.75C37.7595 0.75 36.75 1.7595 36.75 3V3.75H33.75V3C33.75 1.7595 32.7405 0.75 31.5 0.75C30.2595 0.75 29.25 1.7595 29.25 3V3.75H26.25V3C26.25 1.7595 25.2405 0.75 24 0.75C22.7595 0.75 21.75 1.7595 21.75 3V3.75H18.75V3C18.75 1.7595 17.7405 0.75 16.5 0.75C15.2595 0.75 14.25 1.7595 14.25 3V3.75H11.25V3C11.25 1.7595 10.2405 0.75 9 0.75C7.7595 0.75 6.75 1.7595 6.75 3V3.75H1.5C1.30109 3.75 1.11032 3.82902 0.96967 3.96967C0.829018 4.11032 0.75 4.30109 0.75 4.5V39C0.75 39.1989 0.829018 39.3897 0.96967 39.5303C1.11032 39.671 1.30109 39.75 1.5 39.75H25.5V47.25H27V24.75H28.5V47.25H30V24.75H31.5V47.25H33V39.75H35.3452L36.003 47.3153L37.497 47.1847L36.3285 33.75H41.6707L40.5023 47.1847L41.9963 47.3153L42.6548 39.75H46.5C46.6989 39.75 46.8897 39.671 47.0303 39.5303C47.171 39.3897 47.25 39.1989 47.25 39V4.5C47.25 4.30109 47.171 4.11032 47.0303 3.96967C46.8897 3.82902 46.6989 3.75 46.5 3.75ZM38.25 3C38.2586 2.80689 38.3414 2.62455 38.4811 2.49096C38.6208 2.35736 38.8067 2.2828 39 2.2828C39.1933 2.2828 39.3792 2.35736 39.5189 2.49096C39.6586 2.62455 39.7414 2.80689 39.75 3V6C39.7414 6.19311 39.6586 6.37545 39.5189 6.50904C39.3792 6.64264 39.1933 6.7172 39 6.7172C38.8067 6.7172 38.6208 6.64264 38.4811 6.50904C38.3414 6.37545 38.2586 6.19311 38.25 6V3ZM30.75 3C30.7586 2.80689 30.8414 2.62455 30.9811 2.49096C31.1208 2.35736 31.3067 2.2828 31.5 2.2828C31.6933 2.2828 31.8792 2.35736 32.0189 2.49096C32.1586 2.62455 32.2414 2.80689 32.25 3V6C32.2414 6.19311 32.1586 6.37545 32.0189 6.50904C31.8792 6.64264 31.6933 6.7172 31.5 6.7172C31.3067 6.7172 31.1208 6.64264 30.9811 6.50904C30.8414 6.37545 30.7586 6.19311 30.75 6V3ZM23.25 3C23.2586 2.80689 23.3414 2.62455 23.4811 2.49096C23.6208 2.35736 23.8067 2.2828 24 2.2828C24.1933 2.2828 24.3792 2.35736 24.5189 2.49096C24.6586 2.62455 24.7414 2.80689 24.75 3V6C24.7414 6.19311 24.6586 6.37545 24.5189 6.50904C24.3792 6.64264 24.1933 6.7172 24 6.7172C23.8067 6.7172 23.6208 6.64264 23.4811 6.50904C23.3414 6.37545 23.2586 6.19311 23.25 6V3ZM15.75 3C15.7586 2.80689 15.8414 2.62455 15.9811 2.49096C16.1208 2.35736 16.3067 2.2828 16.5 2.2828C16.6933 2.2828 16.8792 2.35736 17.0189 2.49096C17.1586 2.62455 17.2414 2.80689 17.25 3V6C17.2414 6.19311 17.1586 6.37545 17.0189 6.50904C16.8792 6.64264 16.6933 6.7172 16.5 6.7172C16.3067 6.7172 16.1208 6.64264 15.9811 6.50904C15.8414 6.37545 15.7586 6.19311 15.75 6V3ZM8.25 3C8.25864 2.80689 8.34143 2.62455 8.48114 2.49096C8.62084 2.35736 8.8067 2.2828 9 2.2828C9.1933 2.2828 9.37916 2.35736 9.51886 2.49096C9.65857 2.62455 9.74136 2.80689 9.75 3V6C9.74136 6.19311 9.65857 6.37545 9.51886 6.50904C9.37916 6.64264 9.1933 6.7172 9 6.7172C8.8067 6.7172 8.62084 6.64264 8.48114 6.50904C8.34143 6.37545 8.25864 6.19311 8.25 6V3ZM27.4635 23.25L29.25 19.677L31.0365 23.25H27.4635ZM40.2803 19.5907L41.9093 21.2197C42.4433 21.7545 42.75 22.494 42.75 23.25C42.75 24.006 42.4433 24.7455 41.9093 25.2803L40.9395 26.25H39.75V23.25H38.25V26.25H37.0793C35.9015 24.9898 35.2474 23.3286 35.25 21.6038V21.0045C35.25 19.7325 35.7113 18.5047 36.549 17.5477L39 14.7465V16.5C39 17.6505 39.4665 18.777 40.2803 19.5907ZM37.2135 27.75H40.7865L41.5365 29.25H36.4635L37.2135 27.75ZM36.198 32.25L36.0675 30.75H41.9318L41.8013 32.25H36.198ZM45.75 38.25H42.7853L43.497 30.0653C43.5092 29.9272 43.4827 29.7885 43.4205 29.6648L42.162 27.1485L42.969 26.3415C43.7835 25.527 44.25 24.4005 44.25 23.25C44.25 22.0995 43.7835 20.973 42.9697 20.1593L41.3407 18.5303C40.8044 17.9904 40.5023 17.261 40.5 16.5V12.75C40.4996 12.5977 40.4528 12.4491 40.3659 12.3239C40.279 12.1988 40.1561 12.1031 40.0136 12.0494C39.871 11.9958 39.7155 11.9868 39.5676 12.0237C39.4198 12.0605 39.2867 12.1415 39.186 12.2557L35.4202 16.5592C34.3433 17.7897 33.7498 19.3693 33.75 21.0045V21.6038C33.75 23.6543 34.4842 25.5915 35.8447 27.1327L34.5788 29.6648C34.5166 29.7886 34.4901 29.9272 34.5023 30.0653L35.2147 38.25H33V24C33 23.8838 32.973 23.7682 32.9212 23.6647L29.9212 17.6647C29.667 17.1562 28.8337 17.1562 28.5795 17.6647L25.5795 23.6647C25.5271 23.7687 25.4998 23.8836 25.5 24V38.25H2.25V5.25H6.75V6C6.75 7.2405 7.7595 8.25 9 8.25C10.2405 8.25 11.25 7.2405 11.25 6V5.25H14.25V6C14.25 7.2405 15.2595 8.25 16.5 8.25C17.7405 8.25 18.75 7.2405 18.75 6V5.25H21.75V6C21.75 7.2405 22.7595 8.25 24 8.25C25.2405 8.25 26.25 7.2405 26.25 6V5.25H29.25V6C29.25 7.2405 30.2595 8.25 31.5 8.25C32.7405 8.25 33.75 7.2405 33.75 6V5.25H36.75V6C36.75 7.2405 37.7595 8.25 39 8.25C40.2405 8.25 41.25 7.2405 41.25 6V5.25H45.75V38.25Z" fill="white"/>
<path d="M24 21.75C24 18.4418 21.3083 15.75 18 15.75C17.6917 15.75 17.3835 15.774 17.079 15.8212C16.7633 14.5147 16.0162 13.3527 14.9585 12.5232C13.9007 11.6937 12.5942 11.2451 11.25 11.25C7.94175 11.25 5.25 13.9418 5.25 17.25C5.25 18.456 5.616 19.6342 6.291 20.625C5.61337 21.6201 5.25066 22.7961 5.25 24C5.25 27.069 7.566 29.607 10.542 29.958C10.893 32.934 13.431 35.25 16.5 35.25C19.8083 35.25 22.5 32.5583 22.5 29.25C22.5013 28.2562 22.2535 27.2779 21.7792 26.4045C22.4745 25.8446 23.035 25.1357 23.4194 24.33C23.8038 23.5244 24.0022 22.6426 24 21.75ZM20.3738 25.5675C20.2869 25.6217 20.212 25.6931 20.1538 25.7773C20.0956 25.8615 20.0552 25.9568 20.0352 26.0572C20.0151 26.1576 20.0159 26.261 20.0374 26.3611C20.0588 26.4612 20.1006 26.5559 20.16 26.6393C20.7069 27.3999 21.0007 28.3132 21 29.25C21 31.7318 18.9818 33.75 16.5 33.75C14.0182 33.75 12 31.7318 12 29.25C12 29.0511 11.921 28.8603 11.7803 28.7197C11.6397 28.579 11.4489 28.5 11.25 28.5C8.76825 28.5 6.75 26.4818 6.75 24C6.75 22.944 7.125 21.9172 7.80525 21.108C7.91887 20.9728 7.98117 20.8019 7.98117 20.6254C7.98117 20.4488 7.91887 20.2779 7.80525 20.1427C7.12461 19.3324 6.75102 18.3083 6.75 17.25C6.75 14.7682 8.76825 12.75 11.25 12.75C12.3668 12.7459 13.445 13.159 14.2732 13.9083C15.1014 14.6576 15.62 15.6891 15.7275 16.8007C15.7385 16.911 15.7737 17.0175 15.8308 17.1125C15.8878 17.2075 15.9652 17.2887 16.0573 17.3502C16.1495 17.4117 16.2541 17.4521 16.3637 17.4683C16.4734 17.4846 16.5852 17.4764 16.6912 17.4443C17.3638 17.2408 18.0745 17.1975 18.7667 17.3178C19.459 17.4381 20.1135 17.7187 20.6779 18.1371C21.2423 18.5555 21.7011 19.1001 22.0175 19.7274C22.3338 20.3548 22.4991 21.0474 22.5 21.75C22.5012 22.515 22.3064 23.2675 21.9342 23.9357C21.562 24.604 21.0247 25.1658 20.3738 25.5675ZM24 9.75C22.3455 9.75 21 11.0955 21 12.75C21 14.4045 22.3455 15.75 24 15.75C25.6545 15.75 27 14.4045 27 12.75C27 11.0955 25.6545 9.75 24 9.75ZM24 14.25C23.1728 14.25 22.5 13.5773 22.5 12.75C22.5 11.9227 23.1728 11.25 24 11.25C24.8272 11.25 25.5 11.9227 25.5 12.75C25.5 13.5773 24.8272 14.25 24 14.25ZM6 32.25C4.7595 32.25 3.75 33.2595 3.75 34.5C3.75 35.7405 4.7595 36.75 6 36.75C7.2405 36.75 8.25 35.7405 8.25 34.5C8.25 33.2595 7.2405 32.25 6 32.25ZM6 35.25C5.80689 35.2414 5.62455 35.1586 5.49096 35.0189C5.35736 34.8792 5.2828 34.6933 5.2828 34.5C5.2828 34.3067 5.35736 34.1208 5.49096 33.9811C5.62455 33.8414 5.80689 33.7586 6 33.75C6.19311 33.7586 6.37545 33.8414 6.50904 33.9811C6.64264 34.1208 6.7172 34.3067 6.7172 34.5C6.7172 34.6933 6.64264 34.8792 6.50904 35.0189C6.37545 35.1586 6.19311 35.2414 6 35.25Z" fill="white"/>
</g>
<defs>
<clipPath id="clip0_212_786">
<rect width="48" height="48" fill="white"/>
</clipPath>
</defs>
</svg>

<svg width="48" height="48" fill="none" xmlns="http://www.w3.org/2000/svg"><g clip-path="url(#a)" fill="#fff"><path d="M46.5 3.75h-5.25V3c0-1.24-1.01-2.25-2.25-2.25S36.75 1.76 36.75 3v.75h-3V3c0-1.24-1.01-2.25-2.25-2.25S29.25 1.76 29.25 3v.75h-3V3c0-1.24-1.01-2.25-2.25-2.25S21.75 1.76 21.75 3v.75h-3V3c0-1.24-1.01-2.25-2.25-2.25S14.25 1.76 14.25 3v.75h-3V3C11.25 1.76 10.24.75 9 .75S6.75 1.76 6.75 3v.75H1.5a.75.75 0 0 0-.75.75V39a.75.75 0 0 0 .75.75h24v7.5H27v-22.5h1.5v22.5H30v-22.5h1.5v22.5H33v-7.5h2.345l.658 7.565 1.494-.13-1.169-13.435h5.343l-1.169 13.435 1.494.13.659-7.565H46.5a.75.75 0 0 0 .75-.75V4.5a.75.75 0 0 0-.75-.75zM38.25 3a.75.75 0 0 1 1.5 0v3a.75.75 0 0 1-1.5 0V3zm-7.5 0a.75.75 0 0 1 1.5 0v3a.75.75 0 0 1-1.5 0V3zm-7.5 0a.75.75 0 0 1 1.5 0v3a.75.75 0 0 1-1.5 0V3zm-7.5 0a.75.75 0 0 1 1.5 0v3a.75.75 0 0 1-1.5 0V3zm-7.5 0a.75.75 0 0 1 1.5 0v3a.75.75 0 0 1-1.5 0V3zm19.213 20.25 1.787-3.573 1.787 3.573h-3.573zm12.817-3.66 1.63 1.63c.533.535.84 1.274.84 2.03 0 .756-.307 1.495-.84 2.03l-.97.97h-1.19v-3h-1.5v3h-1.17a6.79 6.79 0 0 1-1.83-4.646v-.6c0-1.271.461-2.5 1.299-3.456L39 14.747V16.5a4.4 4.4 0 0 0 1.28 3.09zm-3.066 8.16h3.572l.75 1.5h-5.072l.75-1.5zm-1.016 4.5-.13-1.5h5.864l-.13 1.5h-5.604zm9.552 6h-2.965l.712-8.185a.745.745 0 0 0-.077-.4l-1.258-2.517.807-.806a4.402 4.402 0 0 0 1.281-3.092 4.4 4.4 0 0 0-1.28-3.09l-1.63-1.63a2.893 2.893 0 0 1-.84-2.03v-3.75a.75.75 0 0 0-1.314-.494l-3.766 4.303a6.749 6.749 0 0 0-1.67 4.445v.6c0 2.05.734 3.988 2.095 5.529l-1.266 2.532a.746.746 0 0 0-.077.4l.713 8.185H33V24a.751.751 0 0 0-.079-.335l-3-6c-.254-.509-1.087-.509-1.341 0l-3 6a.743.743 0 0 0-.08.335v14.25H2.25v-33h4.5V6c0 1.24 1.01 2.25 2.25 2.25S11.25 7.24 11.25 6v-.75h3V6c0 1.24 1.01 2.25 2.25 2.25S18.75 7.24 18.75 6v-.75h3V6c0 1.24 1.01 2.25 2.25 2.25S26.25 7.24 26.25 6v-.75h3V6c0 1.24 1.01 2.25 2.25 2.25S33.75 7.24 33.75 6v-.75h3V6c0 1.24 1.01 2.25 2.25 2.25S41.25 7.24 41.25 6v-.75h4.5v33z"/><path d="M24 21.75a6.007 6.007 0 0 0-6.921-5.929 5.975 5.975 0 0 0-5.829-4.571c-3.308 0-6 2.692-6 6 0 1.206.366 2.384 1.041 3.375A6.002 6.002 0 0 0 5.25 24a6.008 6.008 0 0 0 5.292 5.958A6.008 6.008 0 0 0 16.5 35.25c3.308 0 6-2.692 6-6a5.946 5.946 0 0 0-.72-2.846A5.956 5.956 0 0 0 24 21.75zm-3.626 3.817a.75.75 0 0 0-.214 1.072c.547.76.84 1.674.84 2.611 0 2.482-2.018 4.5-4.5 4.5a4.504 4.504 0 0 1-4.5-4.5.75.75 0 0 0-.75-.75 4.504 4.504 0 0 1-4.5-4.5c0-1.056.375-2.083 1.055-2.892a.75.75 0 0 0 0-.965A4.504 4.504 0 0 1 6.75 17.25c0-2.482 2.018-4.5 4.5-4.5a4.482 4.482 0 0 1 4.477 4.05.75.75 0 0 0 .964.644 4.504 4.504 0 0 1 5.243 6.492 4.478 4.478 0 0 1-1.56 1.631zM24 9.75c-1.654 0-3 1.345-3 3s1.346 3 3 3 3-1.345 3-3-1.346-3-3-3zm0 4.5c-.827 0-1.5-.673-1.5-1.5s.673-1.5 1.5-1.5 1.5.673 1.5 1.5-.673 1.5-1.5 1.5zm-18 18c-1.24 0-2.25 1.01-2.25 2.25S4.76 36.75 6 36.75s2.25-1.01 2.25-2.25S7.24 32.25 6 32.25zm0 3a.75.75 0 0 1 0-1.5.75.75 0 0 1 0 1.5z"/></g><defs><clipPath id="a"><path fill="#fff" d="M0 0h48v48H0z"/></clipPath></defs></svg>
